!!!COM:	van Weerbeke, Gaspar
!!!CDT:	~1445//-~1517//
!!!OTL:	Ave regina celorum
!!!AGN:	Motet
!!!SCT:	Gas2029
!!!SCA:	Gas2029
!!!voices:	4
**kern	**text	**kern	**text	**kern	**text	**kern	**text
*staff4	*staff4	*staff3	*staff3	*staff2	*staff2	*staff1	*staff1
*Ivox	*	*Ivox	*	*Ivox	*	*Ivox	*
*I"Bassus	*	*I"Tenor	*	*I"Altus	*	*I"Superius	*
*I'B	*	*I'T	*	*I'A	*	*I'S	*
*>[A,B,C]	*>[A,B,C]	*>[A,B,C]	*>[A,B,C]	*>[A,B,C]	*>[A,B,C]	*>[A,B,C]	*>[A,B,C]
*>A	*>A	*>A	*>A	*>A	*>A	*>A	*>A
*clefF4	*	*clefGv2	*	*clefGv2	*	*clefG2	*
*k[b-]	*	*k[b-]	*	*k[b-]	*	*k[b-]	*
*M3/1	*	*M3/1	*	*M3/1	*	*M3/1	*
*met(O)	*	*met(O)	*	*met(O)	*	*met(O)	*
!!section: Ave regina celorum
!!!OMD: Ave regina celorum
=1-	=1-	=1-	=1-	=1-	=1-	=1-	=1-
0.r	.	0.r	.	1F	A-	[0.f	A-
.	.	.	.	2.F/	-ve,	.	.
.	.	.	.	4G/	.	.	.
.	.	.	.	2A/	.	.	.
.	.	.	.	[2B-\	.	.	.
=2	=2	=2	=2	=2	=2	=2	=2
0.r	.	0.r	.	4B-\]	.	0.f]	.
.	.	.	.	4c\	.	.	.
.	.	.	.	1d	.	.	.
.	.	.	.	4c\	.	.	.
.	.	.	.	4B-\	.	.	.
.	.	.	.	2A/	.	.	.
.	.	.	.	2B-\	.	.	.
=3	=3	=3	=3	=3	=3	=3	=3
0.r	.	0.r	.	2c\	.	1.e	.
.	.	.	.	2.C/	A-	.	.
.	.	.	.	4D/	.	.	.
.	.	.	.	2E/	.	2c/	.
.	.	.	.	2F/	.	1d	.
.	.	.	.	2G/	.	.	.
=4	=4	=4	=4	=4	=4	=4	=4
0.r	.	0.r	.	2A/	.	4c/	.
.	.	.	.	.	.	4B-/	.
.	.	.	.	1c	.	4A/	.
.	.	.	.	.	.	4G/	.
.	.	.	.	.	.	2F/	.
.	.	.	.	2A/	.	1f	.
.	.	.	.	1G	.	.	.
.	.	.	.	.	.	2e/	.
=5	=5	=5	=5	=5	=5	=5	=5
1FF	A-	[0.F	A-	0F	-ve,	0f	-ve,
2.FF/	-ve,	.	.	.	.	.	.
4GG/	.	.	.	.	.	.	.
2AA/	.	.	.	1r	.	1r	.
[2BB-/	.	.	.	.	.	.	.
=6	=6	=6	=6	=6	=6	=6	=6
4BB-/]	.	0.F]	.	0.r	.	0.r	.
4AA/	.	.	.	.	.	.	.
4BB-/	.	.	.	.	.	.	.
4AA/	.	.	.	.	.	.	.
2FF/	.	.	.	.	.	.	.
2BB-/	A-	.	.	.	.	.	.
2AA/	.	.	.	.	.	.	.
2BB-/	.	.	.	.	.	.	.
=7	=7	=7	=7	=7	=7	=7	=7
2.C/	.	0E	.	0.r	.	0.r	.
4BB-/	.	.	.	.	.	.	.
2GG/	.	.	.	.	.	.	.
1C	.	.	.	.	.	.	.
.	.	1D	.	.	.	.	.
2BB-/	.	.	.	.	.	.	.
=8	=8	=8	=8	=8	=8	=8	=8
2.C/	.	2.E/	.	0.r	.	0.r	.
4AA/	.	4C/	.	.	.	.	.
4BB-/	.	4D/	.	.	.	.	.
4C/	.	4C/	.	.	.	.	.
2AA/	.	1F	.	.	.	.	.
1GG	.	.	.	.	.	.	.
.	.	2E/	.	.	.	.	.
=9	=9	=9	=9	=9	=9	=9	=9
1FF	-ve,	0.F	-ve,	1.C	re-	1A	re-
2.FF/	re-	.	.	.	.	2.A/	-gi-
.	.	.	.	2D/	-gi-	.	.
4GG/	.	.	.	.	.	4B-/	.
2AA/	.	.	.	2C/	.	2c/	.
2BB-/	.	.	.	[2F/	.	2d/	.
=10	=10	=10	=10	=10	=10	=10	=10
2AA/	-gi-	0.F	re-	4F/]	.	2c/	.
.	.	.	.	4G/	.	.	.
2FF/	.	.	.	2A/	.	1f	.
1BB-	.	.	.	2D/	.	.	.
.	.	.	.	2BB-/	.	4e/	.
.	.	.	.	.	.	4d/	.
1AA	.	.	.	1C	.	1c	.
=11	=11	=11	=11	=11	=11	=11	=11
1GG	-na,	[0.G	-gi-	1.D	-na,	1B-	-na,
2.GG/	re-	.	.	.	.	2.B-/	re-
.	.	.	.	2E/	ce-	.	.
4AA/	.	.	.	.	.	4c/	.
2BB-/	.	.	.	2D/	.	2d/	.
2C/	.	.	.	[2G/	-lo-	2e-i/	.
=12	=12	=12	=12	=12	=12	=12	=12
2BB-/	-gi-	0.G]	.	4G/]	.	2d/	-gi-
.	.	.	.	4A/	.	.	.
2GG/	.	.	.	2B-\	.	1g	.
1C	.	.	.	2c\	.	.	.
.	.	.	.	2C/	.	4f/	.
.	.	.	.	.	.	4e/	.
1BB-	.	.	.	1D	.	1d	.
=13	=13	=13	=13	=13	=13	=13	=13
1AA	-na,	[0.A	.	1.E	-rum,	1c	-na,
2.AA/	ce-	.	.	.	.	2.c/	ce-
.	.	.	.	2F/	ce-	.	.
4BB-/	.	.	.	.	.	4d/	.
2C/	.	.	.	2E/	.	2e/	.
2D\	.	.	.	2D/	.	2f/	.
=14	=14	=14	=14	=14	=14	=14	=14
2C/	-lo-	0A]	.	2E/	-lo-	2e/	-lo-
2AA/	.	.	.	2.A/	.	2c/	.
2D\	.	.	.	.	.	2f/	.
.	.	.	.	4B-\	.	.	.
2C/	.	.	.	2c\	.	4e/	.
.	.	.	.	.	.	4f/	.
1BB-	.	1G	-na,	2d\	.	4g/	.
.	.	.	.	.	.	4f/	.
.	.	.	.	2D/	.	4e/	.
.	.	.	.	.	.	4d/	.
=15	=15	=15	=15	=15	=15	=15	=15
1AA	-rum,	0A	ce-	1E	.	1c	-rum,
1r	.	.	.	2C/	-rum,	2e/	ce-
.	.	.	.	2D/	.	2f/	.
1GG	ce-	1B-	.	1r	.	1g	-lo-
=16	=16	=16	=16	=16	=16	=16	=16
2AA/	-lo-	1c	-lo-	1A	ce-	2e/	.
2FF/	.	.	.	.	.	2a/	.
2GG/	.	2B-\	.	2B-\	-lo-	2g/	.
2AA/	.	2A/	.	2c\	.	1f	.
2BB-/	.	1G	.	2d\	.	.	.
2C/	.	.	.	2c\	.	2e/	.
=17	=17	=17	=17	=17	=17	=17	=17
1.D	.	0F	-rum,	1.A	-rum,	1f	-rum,
.	.	.	.	.	.	1r	.
2BB-/	.	.	.	2d\	A-	.	.
2.E-i\	.	1r	.	2B-\	.	1r	.
.	.	.	.	2c\	.	.	.
4D\	.	.	.	.	.	.	.
=18	=18	=18	=18	=18	=18	=18	=18
2.BB-/	.	0.r	.	2.d\	.	0f	A-
4AA/	.	.	.	4c\	.	.	.
2BB-/	.	.	.	2B-\	.	.	.
2D\	.	.	.	2F/	.	.	.
1C	.	.	.	2G/	.	1e	.
.	.	.	.	2A/	.	.	.
=19	=19	=19	=19	=19	=19	=19	=19
1BB-	.	[0.F	A-	2.B-\	.	1d	.
.	.	.	.	4c\	.	.	.
[0FF	-rum,	.	.	1A	-ve,	0c	.
.	.	.	.	2.A/	A-	.	.
.	.	.	.	4B-\	.	.	.
=20	=20	=20	=20	=20	=20	=20	=20
1FF]	.	1F]	.	2c\	.	1A	-ve,
.	.	.	.	1d	.	.	.
1r	.	1E	.	.	.	1G	.
.	.	.	.	1c	.	.	.
1GG	A-	1D	.	.	.	2r	.
.	.	.	.	2Bni\	.	[2g/	A-
=21	=21	=21	=21	=21	=21	=21	=21
1.C	-ve	2E/	.	1c	.	2g/]	.
.	.	1G	.	.	.	1e	-ve
.	.	.	.	2G/	.	.	.
2AA/	do-	1F	.	2A/	.	2c/	do-
2BB-/	.	.	.	1G	-ve,	2d/	.
2C/	.	2E/	.	.	.	2e/	.
=22	=22	=22	=22	=22	=22	=22	=22
1.D	.	1F	-ve,	1r	.	2.A/	.
.	.	.	.	.	.	4B-/	.
.	.	1F	do-	1r	.	2A/	.
2F\	.	.	.	.	.	1d	.
1E	.	1G	.	1C	A-	.	.
.	.	.	.	.	.	2c/	.
=23	=23	=23	=23	=23	=23	=23	=23
2.D\	.	0A	.	1F	-ve,	2.d/	.
4C/	.	.	.	.	.	4e/	.
4D\	.	.	.	1r	.	4f/	.
4C/	.	.	.	.	.	4e/	.
4D\	.	.	.	.	.	4f/	.
4C/	.	.	.	.	.	4e/	.
2AA/	.	1A	-mi-	[1c	do-	2c/	.
2FF/	.	.	.	.	.	2f/	.
=24	=24	=24	=24	=24	=24	=24	=24
2C/	.	0G	-na,	2c\]	.	2e/	.
4BB-/	.	.	.	4d\	.	4d/	.
2C/	.	.	.	2c\	.	2e/	.
4D\	.	.	.	8B-/L	.	4f/	.
.	.	.	.	8A/J	.	.	.
2E\	-mi-	.	.	2G/	-mi-	2g/	-mi-
2.F\	-na	1A	an-	1F	-na,	1c	-na,
4E\	an-	.	.	.	.	.	.
=25	=25	=25	=25	=25	=25	=25	=25
4D\	.	1B-	-ge-	1r	.	2f/	an-
4C/	.	.	.	.	.	.	.
2BB-/	-ge-	.	.	.	.	2g/	.
2AA/	-lo-	0c	.	2C/	an-	1.a	.
2FF/	-rum,	.	.	1F	.	.	.
1r	.	.	.	.	.	.	.
.	.	.	.	4E/	.	4g/	.
.	.	.	.	4D/	.	4f/	.
=26	=26	=26	=26	=26	=26	=26	=26
1r	.	2c\	-lo-	2C/	-ge-	2e/	-ge-
.	.	2B-\	.	1E	-lo-	1g	-lo-
2r	.	2c\	.	.	.	.	.
2FF/	an-	2A/	.	2F/	.	1f	.
1C	.	1G	.	2C/	.	.	.
.	.	.	.	[2c\	.	2e/	.
=27	=27	=27	=27	=27	=27	=27	=27
2FF/	.	1F	-rum,	2c\]	.	0f	-rum,
2BB-/	-ge-	.	.	2d\	.	.	.
2AA/	-lo-	1r	.	2c\	.	.	.
4GG/	.	.	.	2A/	.	.	.
4FF/	.	.	.	.	.	.	.
1EE	.	1r	.	1G	-rum,	1r	.
=28	=28	=28	=28	=28	=28	=28	=28
1FF	-rum,	0F	Sal-	2.A/	an-	1c	Sal-
.	.	.	.	4G/	.	.	.
1r	.	.	.	4F/	.	1d	.
.	.	.	.	4E/	.	.	.
.	.	.	.	2D/	-ge-	.	.
1r	.	[1G	.	2.C/	-lo-	2.e/	.
.	.	.	.	4D/	.	4f/	.
=29	=29	=29	=29	=29	=29	=29	=29
1EE	Sal-	1G]	.	1E	-rum,	1g	.
0FF	.	0A	.	1r	.	2.f/	.
.	.	.	.	.	.	4g/	.
.	.	.	.	1C	Sal-	1a	.
=30	=30	=30	=30	=30	=30	=30	=30
1GG	.	0B-	.	1BB-	.	2.g/	.
.	.	.	.	.	.	4f/	.
1BB-	.	.	.	2.D/	.	1d	.
.	.	.	.	4E/	.	.	.
1FF	.	1A	.	2.F/	.	2c/	.
.	.	.	.	.	.	2f/	.
.	.	.	.	4E/	.	.	.
=31	=31	=31	=31	=31	=31	=31	=31
0C	.	2G/	.	2C/	-ve,	2e/	.
.	.	1c	.	2AA/	.	1a	.
.	.	.	.	2r	.	.	.
.	.	1A	.	2C/	Sal-	2f/	.
1BB-	.	.	.	1D	.	1g	.
.	.	2G/	.	.	.	.	.
=32	=32	=32	=32	=32	=32	=32	=32
0AA	-ve,	0A	-ve,	0E	-ve,	1c	-ve,
.	.	.	.	.	.	1c	Sal-
2.D\	Sal-	1r	.	2.F/	Sal-	2.A/	.
4C/	.	.	.	4G/	.	4B-/	.
=33	=33	=33	=33	=33	=33	=33	=33
2AA/	.	0.r	.	2A/	.	2c/	.
2GG/	.	.	.	2B-\	.	2d/	.
1C	-ve,	.	.	2G/	.	2e/	.
.	.	.	.	1c	.	2c/	.
1D	.	.	.	.	.	1f	-ve,
.	.	.	.	2Bni\	.	.	.
=34	=34	=34	=34	=34	=34	=34	=34
2.C/	ra-	0c	ra-	1c	-ve,	2.e/	ra-
4D\	.	.	.	.	.	4f/	.
2E\	.	.	.	1r	.	2g/	.
2AA/	.	.	.	.	.	2a/	.
2.BB-/	.	[1B-	.	1r	.	2.d/	.
4C/	.	.	.	.	.	4e/	.
=35	=35	=35	=35	=35	=35	=35	=35
2D\	.	1B-]	.	0.r	.	2f/	.
2GG/	.	.	.	.	.	2g/	.
2.AA/	.	0A	.	.	.	2.c/	.
4BB-/	.	.	.	.	.	4d/	.
2C/	.	.	.	.	.	2e/	.
2FF/	.	.	.	.	.	2f/	.
=36	=36	=36	=36	=36	=36	=36	=36
2.GG/	.	0G	-dix	1r	.	2.B-/	.
4AA/	.	.	.	.	.	4c/	.
2BB-/	.	.	.	1r	.	2d/	.
2C/	.	.	.	.	.	2e/	.
2.FF/	.	[1F	san-	2.c\	ra-	2.A/	.
4GG/	.	.	.	4B-\	.	4B-/	.
=37	=37	=37	=37	=37	=37	=37	=37
4AA/	.	2F/]	.	2A/	.	4c/	.
4BB-/	.	.	.	.	.	4d/	.
2C/	.	2E/	.	2G/	.	2e/	.
2AA/	-dix	1F	.	2A/	-dix	2c/	-dix
2FF/	san-	.	.	2.c\	san-	1f	san-
1C	.	1G	.	.	.	.	.
.	.	.	.	4B-\	.	.	.
.	.	.	.	2c\	.	2e/	.
=38	=38	=38	=38	=38	=38	=38	=38
1D	.	[0.F	-cta,	1A	.	0.f	-cta,
0BB-	.	.	.	2B-\	.	.	.
.	.	.	.	2.d\	.	.	.
.	.	.	.	4c\	.	.	.
.	.	.	.	2B-\	.	.	.
=39	=39	=39	=39	=39	=39	=39	=39
0.FF	-cta,	0.F]	.	0A	-cta,	0.r	.
.	.	.	.	1c	ex	.	.
=40	=40	=40	=40	=40	=40	=40	=40
0.r	.	0.r	.	2B-\	qua	1g	ex
.	.	.	.	2c\	.	.	.
.	.	.	.	2A/	.	2f/	qua
.	.	.	.	2G/	.	2g/	mun-
.	.	.	.	2c\	.	2e/	.
.	.	.	.	2B-\	.	2d/	-do,
=41	=41	=41	=41	=41	=41	=41	=41
0.r	.	0.r	.	2.G/	mun-	2r	.
.	.	.	.	.	.	2g/	mun-
.	.	.	.	4F/	.	.	.
.	.	.	.	2.D/	.	2f/	.
.	.	.	.	.	.	2.d/	.
.	.	.	.	4E/	.	.	.
.	.	.	.	2.F/	.	.	.
.	.	.	.	.	.	4c/	.
.	.	.	.	.	.	[2A/	.
.	.	.	.	4E/	.	.	.
=42	=42	=42	=42	=42	=42	=42	=42
1r	.	0.r	.	1C	.	4A/]	.
.	.	.	.	.	.	4B-/	.
.	.	.	.	.	.	2.c/	.
1r	.	.	.	1C	-do,	.	.
.	.	.	.	.	.	4B-/	.
.	.	.	.	.	.	2.G/	.
[1GG	ex	.	.	1r	.	.	.
.	.	.	.	.	.	4A/	.
.	.	.	.	.	.	4B-/	.
.	.	.	.	.	.	4c/	.
=43	=43	=43	=43	=43	=43	=43	=43
0.GG]	.	0.r	.	1.G	mun-	2d/	.
.	.	.	.	.	.	2e/	.
.	.	.	.	.	.	2d/	.
.	.	.	.	2E/	.	1c	.
.	.	.	.	1D	.	.	.
.	.	.	.	.	.	2B/	.
=44	=44	=44	=44	=44	=44	=44	=44
1AA	qua,	0.r	.	1C	-do,	1c	-do,
2BB-/	mun-	.	.	2D/	mun-	2G/	mun-
2C/	.	.	.	2E/	.	2A/	.
2.D\	.	.	.	2.F/	.	2.B-/	.
4BB-/	.	.	.	4D/	.	4G/	.
=45	=45	=45	=45	=45	=45	=45	=45
2C/	.	0.r	.	2E/	.	2A/	.
2D\	.	.	.	2F/	.	2B-/	.
2.E\	.	.	.	2.G/	.	2.c/	.
4C/	.	.	.	4E/	.	4A/	.
2D\	.	.	.	2F/	.	2B-/	.
2E\	.	.	.	2G/	.	2c/	.
=46	=46	=46	=46	=46	=46	=46	=46
2.F\	.	0.r	.	2.A/	.	2d/	.
.	.	.	.	.	.	2f/	.
4E\	.	.	.	4B-\	.	.	.
2C/	.	.	.	2c\	.	2e/	.
2D\	.	.	.	1A	.	1d	.
1E	.	.	.	.	.	.	.
.	.	.	.	2G/	.	2c#/	.
=47	=47	=47	=47	=47	=47	=47	=47
1D	-do,	0F	ex	1A	-do,	1d	-do,
1r	.	.	.	1A	mun-	2c/	mun-
.	.	.	.	.	.	2.d/	.
1r	.	1D	.	2B-\	.	.	.
.	.	.	.	.	.	4e/	.
.	.	.	.	2A/	.	2f/	.
=48	=48	=48	=48	=48	=48	=48	=48
1r	.	2E/	qua	2G/	.	2g/	.
.	.	2C/	.	1c	.	2e/	.
1GG	mun-	1D	.	.	.	1d	-do,
.	.	.	.	2Bni\	.	.	.
2AA/	.	1C	.	1c	.	1r	.
[2C/	.	.	.	.	.	.	.
=49	=49	=49	=49	=49	=49	=49	=49
2C/]	.	2D/	mun-	2A/	.	1r	.
2BB-/	.	1F	.	2B-\	.	.	.
1C	.	.	.	1G	-do,	1c	mun-
.	.	2E/	.	.	.	.	.
1FF	-do,	1F	.	1r	.	2d/	.
.	.	.	.	.	.	[2f/	.
=50	=50	=50	=50	=50	=50	=50	=50
1r	.	1G	.	1C	lux	2f/]	.
.	.	.	.	.	.	2e/	.
1r	.	1F	-do,	2D/	.	1f	-do,
.	.	.	.	1F	.	.	.
1C	lux	1r	.	.	.	2r	.
.	.	.	.	2E/	.	2g/	lux
=51	=51	=51	=51	=51	=51	=51	=51
2FF/	.	2r	.	2F/	.	1a	.
1F	.	2F/	lux	2A/	.	.	.
.	.	1G	.	1G	est	1b-	.
2E\	.	.	.	.	.	.	.
1F	est	1A	.	1c	.	2a/	.
.	.	.	.	.	.	2f/	.
=52	=52	=52	=52	=52	=52	=52	=52
1BB-	.	1B-	.	1r	.	4g/	est
.	.	.	.	.	.	4f/	.
.	.	.	.	.	.	4e/	.
.	.	.	.	.	.	4d/	.
2r	.	2A/	.	4F/	or-	2c/	.
.	.	.	.	4G/	.	.	.
2D\	or-	2F/	.	4A/	.	1f	or-
.	.	.	.	4B-\	.	.	.
1C	.	1G	est	1c	-ta,.	.	.
.	.	.	.	.	.	2e/	.
=53	=53	=53	=53	=53	=53	=53	=53
2FF/	-ta,	2F/	or-	1r	.	2d/	.
2.AA/	or-	2E/	.	.	.	1c	.
.	.	2F/	.	1C	or-	.	.
4GG/	.	.	.	.	.	.	.
1FF	.	2A/	.	.	.	4B-/	.
.	.	.	.	.	.	4A/	.
.	.	1G	.	2D/	.	2.B-/	.
2EE/	.	.	.	2E/	.	.	.
.	.	.	.	.	.	4c/	.
=54	=54	=54	=54	=54	=54	=54	=54
0.FFl	-ta.	0.Fl	-ta.	0.Cl	-ta.	0.Al	-ta.
!!LO:LB:i:g=z
=55||	=55||	=55||	=55||	=55||	=55||	=55||	=55||
*>B	*>B	*>B	*>B	*>B	*>B	*>B	*>B
*clefF4	*	*clefGv2	*	*clefGv2	*	*clefG2	*
*k[b-]	*	*k[b-]	*	*k[b-]	*	*k[b-]	*
*M2/2	*	*M2/2	*	*M2/2	*	*M2/2	*
*met(C|)	*	*met(C|)	*	*met(C|)	*	*met(C|)	*
!!section: Gaude virgo
!!!OMD: Gaude virgo
0r	.	0F	Gau-	0r	.	[0f	Gau-
=56	=56	=56	=56	=56	=56	=56	=56
1r	.	1F	-de	1r	.	0f]	.
1r	.	[1A	vir-	1r	.	.	.
=57	=57	=57	=57	=57	=57	=57	=57
0r	.	2A/]	.	0r	.	1.e	.
.	.	2B-\	.	.	.	.	.
.	.	[1c	.	.	.	.	.
.	.	.	.	.	.	2c/	.
=58	=58	=58	=58	=58	=58	=58	=58
0r	.	1c]	.	0r	.	0d	-de
.	.	1Bni	.	.	.	.	.
=59	=59	=59	=59	=59	=59	=59	=59
0r	.	0c	-go,	0r	.	2.c/	vir-
.	.	.	.	.	.	4B-/	.
.	.	.	.	.	.	4A/	.
.	.	.	.	.	.	4G/	.
.	.	.	.	.	.	2F/	.
=60	=60	=60	=60	=60	=60	=60	=60
0r	.	1c	glo-	0r	.	2E/	.
.	.	.	.	.	.	2F/	.
.	.	1B-	-ri-	.	.	1G	.
=61	=61	=61	=61	=61	=61	=61	=61
0r	.	1.A	-o-	0r	.	1F	-go,
.	.	.	.	.	.	2r	.
.	.	2F/	.	.	.	[2f/	glo-
=62	=62	=62	=62	=62	=62	=62	=62
0r	.	0G	.	0r	.	2f/]	.
.	.	.	.	.	.	4e/	-ri-
.	.	.	.	.	.	4d/	.
.	.	.	.	.	.	4e/	-o-
.	.	.	.	.	.	4d/	.
.	.	.	.	.	.	4c/	.
.	.	.	.	.	.	4B-/	.
=63	=63	=63	=63	=63	=63	=63	=63
0r	.	2F/	.	0r	.	2A/	.
.	.	2.G/	.	.	.	2.B-/	.
.	.	4F/	.	.	.	4A/	.
.	.	[2A/	.	.	.	[2c/	.
=64	=64	=64	=64	=64	=64	=64	=64
0r	.	2A/]	.	0r	.	2c/]	.
.	.	1F	.	.	.	2A/	.
.	.	.	.	.	.	1G	.
.	.	2E/	.	.	.	.	.
=65	=65	=65	=65	=65	=65	=65	=65
0FF	Gau-	0F	-sa,	[0F	Gau-	0F	-sa,
=66	=66	=66	=66	=66	=66	=66	=66
1FF	-de	0r	.	0F]	.	0r	.
[1AA	vir-	.	.	.	.	.	.
=67	=67	=67	=67	=67	=67	=67	=67
2AA/]	.	0r	.	1.E	.	0r	.
2BB-/	.	.	.	.	.	.	.
[1C	.	.	.	.	.	.	.
.	.	.	.	2C/	.	.	.
=68	=68	=68	=68	=68	=68	=68	=68
1C]	.	0r	.	0D	-de	0r	.
1BBni	.	.	.	.	.	.	.
=69	=69	=69	=69	=69	=69	=69	=69
[0C	-go,	0r	.	2C/	glo-	0r	.
.	.	.	.	2.c\	.	.	.
.	.	.	.	4B-\	.	.	.
.	.	.	.	[2A/	.	.	.
=70	=70	=70	=70	=70	=70	=70	=70
1C]	.	0r	.	2A/]	.	0r	.
.	.	.	.	4G/	.	.	.
.	.	.	.	4F/	.	.	.
1BB-	vir-	.	.	4G/	.	.	.
.	.	.	.	4F/	.	.	.
.	.	.	.	4E/	.	.	.
.	.	.	.	4D/	.	.	.
=71	=71	=71	=71	=71	=71	=71	=71
1.AA	.	0r	.	1C	.	1r	.
.	.	.	.	[1F	.	1A	glo-
2FF/	.	.	.	.	.	.	.
=72	=72	=72	=72	=72	=72	=72	=72
0GG	-go	0r	.	1F]	.	1.B-	.
.	.	.	.	1E	-ri-	.	.
.	.	.	.	.	.	2G/	-ri-
=73	=73	=73	=73	=73	=73	=73	=73
2.FF/	glo-	0r	.	2F/	-o-	2A/	-o-
.	.	.	.	1c	.	2B-/	.
4GG/	.	.	.	.	.	.	.
2AA/	.	.	.	.	.	2c/	.
2BB-/	-ri-	.	.	2B-\	.	2d/	.
=74	=74	=74	=74	=74	=74	=74	=74
2C/	-o-	0r	.	2A/	.	2e/	.
2D\	.	.	.	2F/	.	1f	.
1C	.	.	.	1G	.	.	.
.	.	.	.	.	.	2e/	.
=75	=75	=75	=75	=75	=75	=75	=75
[0FF	-sa,	[0F	su-	0F	.	1.f	.
.	.	.	.	.	.	4e/	.
.	.	.	.	.	.	4d/	.
=76	=76	=76	=76	=76	=76	=76	=76
0FF]	.	0F]	.	0A	.	0c	-sa,
=77	=77	=77	=77	=77	=77	=77	=77
0BB-	su-	1F	-per	2.D/	.	1.d	su-
.	.	.	.	4E/	.	.	.
.	.	[1D	.	1F	.	.	.
.	.	.	.	.	.	2c/	.
=78	=78	=78	=78	=78	=78	=78	=78
1GG	.	1D]	.	1G	.	1B-	.
1FF	.	1F	om-	1C	-sa,	1A	.
=79	=79	=79	=79	=79	=79	=79	=79
1C	.	1E	.	2r	.	2G/	.
.	.	.	.	2C/	su-	1c	.
1AA	.	1C	.	2E/	.	.	.
.	.	.	.	2F/	.	4B-/	.
.	.	.	.	.	.	4A/	.
=80	=80	=80	=80	=80	=80	=80	=80
1GG	-per	0D	-nes,	1G	.	1B-	.
2FF/	su-	.	.	2A/	.	2A/	.
[2GG/	.	.	.	2G/	.	[2B-/	.
=81	=81	=81	=81	=81	=81	=81	=81
2GG/]	.	1BB-	om-	2.D/	.	4B-/]	.
.	.	.	.	.	.	4c/	.
2BB-/	.	.	.	.	.	2.d/	.
.	.	.	.	4E/	.	.	.
1AA	.	1C	.	1F	.	.	.
.	.	.	.	.	.	4e/	.
.	.	.	.	.	.	[2c/	.
=82	=82	=82	=82	=82	=82	=82	=82
0GG	.	0D	.	0G	.	2c/]	.
.	.	.	.	.	.	2Bni/	.
.	.	.	.	.	.	2Bni/	.
.	.	.	.	.	.	4A/	.
.	.	.	.	.	.	4Bni/	.
=83	=83	=83	=83	=83	=83	=83	=83
1.AA	-per	[0C	-nes,	1E	-per,	1.c	.
.	.	.	.	1C	.	.	.
4GG/	.	.	.	.	.	4B-/	.
4FF/	.	.	.	.	.	4A/	.
=84	=84	=84	=84	=84	=84	=84	=84
2EE/	om-	0C]	.	1c	om-	2G/	.
1FF	.	.	.	.	.	2F/	.
.	.	.	.	2B-\	.	1G	-per,
2EE/	.	.	.	2G/	.	.	.
=85	=85	=85	=85	=85	=85	=85	=85
2FF/	.	1C	su-	1A	.	1c	om-
2AA/	.	.	.	.	.	.	.
1GG	.	[1D	.	2B-\	.	1B-	.
.	.	.	.	2G/	.	.	.
=86	=86	=86	=86	=86	=86	=86	=86
2FF/	.	1D]	.	2A/	.	2A/	.
1GG	.	.	.	2G/	.	2B-/	.
.	.	1D	-per	1B-	.	1d	.
2BB-/	.	.	.	.	.	.	.
=87	=87	=87	=87	=87	=87	=87	=87
1AA	.	0E	om-	2c\	.	1c	.
.	.	.	.	2A/	.	.	.
2GG/	.	.	.	2B-\	.	2B-/	.
[2AA/	.	.	.	2A/	.	2c/	.
=88	=88	=88	=88	=88	=88	=88	=88
2AA/]	.	1E	-nes,	1c	.	1e-i	.
2C/	.	.	.	.	.	.	.
1BB-	.	[1F	su-	2d\	.	1d	.
.	.	.	.	2B-\	.	.	.
=89	=89	=89	=89	=89	=89	=89	=89
2AA/	.	1F]	.	2c\	.	2c/	.
1BB-	.	.	.	2B-\	.	2d/	.
.	.	1F	-per	1d	.	1f	.
2D\	.	.	.	.	.	.	.
=90	=90	=90	=90	=90	=90	=90	=90
1C	.	0G	om-	2e\	.	1e	.
.	.	.	.	2c\	.	.	.
2BB-/	.	.	.	2d\	-nes,	2d/	.
[2C/	.	.	.	[2c\	.	2e/	.
=91	=91	=91	=91	=91	=91	=91	=91
2C/]	.	1G	-nes,	2c\]	.	1g	.
2E\	.	.	.	2r	.	.	.
2D\	.	1A	om-	2.F/	om-	2f/	.
[2F\	.	.	.	.	.	[2a/	.
.	.	.	.	4G/	.	.	.
=92	=92	=92	=92	=92	=92	=92	=92
2F\]	.	2F/	.	4A/	.	2a/]	.
.	.	.	.	4B-\	.	.	.
2FF/	.	2A/	.	1c	.	4g/	.
.	.	.	.	.	.	4f/	.
1C	.	1G	.	.	.	1e	.
.	.	.	.	2c\	-nes,	.	.
=93	=93	=93	=93	=93	=93	=93	=93
0FF	-nes,	0F	-nes,	0A	.	[0f	-nes,
=94	=94	=94	=94	=94	=94	=94	=94
2.FF/	spe-	1r	.	0F	spe-	0f]	.
4GG/	.	.	.	.	.	.	.
2AA/	.	1r	.	.	.	.	.
2BB-/	-ci-	.	.	.	.	.	.
=95	=95	=95	=95	=95	=95	=95	=95
2BB-/	-o-	0r	.	0G	-ci-	0r	.
2C/	.	.	.	.	.	.	.
2BB-/	.	.	.	.	.	.	.
[2C/	.	.	.	.	.	.	.
=96	=96	=96	=96	=96	=96	=96	=96
2C/]	.	0r	.	0A	-o-	0r	.
2D\	.	.	.	.	.	.	.
2C/	.	.	.	.	.	.	.
[2D\	.	.	.	.	.	.	.
=97	=97	=97	=97	=97	=97	=97	=97
4D\]	.	0r	.	0B-	.	0r	.
4C/	.	.	.	.	.	.	.
4BB-/	.	.	.	.	.	.	.
4AA/	.	.	.	.	.	.	.
1GG	.	.	.	.	.	.	.
=98	=98	=98	=98	=98	=98	=98	=98
2FF/	.	0r	.	1A	.	0r	.
1F	.	.	.	.	.	.	.
.	.	.	.	2F/	.	.	.
[2G\	.	.	.	[2B-\	.	.	.
=99	=99	=99	=99	=99	=99	=99	=99
2G\]	.	0r	.	2B-\]	.	0r	.
1F	.	.	.	2A/	.	.	.
.	.	.	.	1G	-sa,	.	.
2E\	.	.	.	.	.	.	.
=100	=100	=100	=100	=100	=100	=100	=100
1F	-sa,	0r	.	2.F/	spe-	0f	spe-
.	.	.	.	4G/	.	.	.
1r	.	.	.	2A/	-ci-	.	.
.	.	.	.	[2B-\	-o-	.	.
=101	=101	=101	=101	=101	=101	=101	=101
0r	.	0r	.	2B-\]	.	0g	-ci-
.	.	.	.	2c\	.	.	.
.	.	.	.	2B-\	.	.	.
.	.	.	.	[2c\	.	.	.
=102	=102	=102	=102	=102	=102	=102	=102
1r	.	0r	.	2c\]	.	0a	.
.	.	.	.	2d\	.	.	.
1FF	spe-	.	.	2c\	.	.	.
.	.	.	.	[2d\	.	.	.
=103	=103	=103	=103	=103	=103	=103	=103
0GG	-ci-	0r	.	4d\]	.	0b-	-o-
.	.	.	.	4c\	.	.	.
.	.	.	.	4B-\	.	.	.
.	.	.	.	4A/	.	.	.
.	.	.	.	1G	.	.	.
=104	=104	=104	=104	=104	=104	=104	=104
0AA	.	0r	.	1F	-sa,	1a	.
.	.	.	.	1r	.	1f	.
=105	=105	=105	=105	=105	=105	=105	=105
0BB-	-o-	0r	.	0r	.	2.g/	.
.	.	.	.	.	.	8f/L	.
.	.	.	.	.	.	8e/J	.
.	.	.	.	.	.	1d	-sa,
=106	=106	=106	=106	=106	=106	=106	=106
2AA/	.	0F	spe-	0r	.	2c/	spe-
2FF/	.	.	.	.	.	2d/	.
2AA/	.	.	.	.	.	2c/	-ci-
2BB-/	.	.	.	.	.	[2d/	-o-
=107	=107	=107	=107	=107	=107	=107	=107
1GG	-sa,	0G	-ci-	0r	.	2d/]	.
.	.	.	.	.	.	2e/	.
1r	.	.	.	.	.	2d/	.
.	.	.	.	.	.	[2e/	.
=108	=108	=108	=108	=108	=108	=108	=108
0r	.	0A	.	0r	.	2e/]	.
.	.	.	.	.	.	2f/	.
.	.	.	.	.	.	2e/	.
.	.	.	.	.	.	[2f/	.
=109	=109	=109	=109	=109	=109	=109	=109
1r	.	0B-	-o-	0r	.	2f/]	.
.	.	.	.	.	.	2.g/	.
1EE-	spe-	.	.	.	.	.	.
.	.	.	.	.	.	4f/	.
.	.	.	.	.	.	4e/	.
.	.	.	.	.	.	4d/	.
=110	=110	=110	=110	=110	=110	=110	=110
2.FF/	.	1A	-sa,	0r	.	1c	-sa,
4GG/	.	.	.	.	.	.	.
2AA/	.	2c\	spe-	.	.	2c/	spe-
2BB-/	-ci-	2B-\	.	.	.	[2f/	.
=111	=111	=111	=111	=111	=111	=111	=111
1C	-o-	1G	-ci-	1c	spe-	2f/]	.
.	.	.	.	.	.	2e/	-ci-
2D\	.	2F/	-o-	2A/	.	2f/	.
[2E\	.	[2B-\	.	[2G/	.	[2g/	-o-
=112	=112	=112	=112	=112	=112	=112	=112
2E\]	.	2B-\]	.	2G/]	.	2g/]	.
2F\	.	2A/	.	1c	.	1f	.
1C	.	1G	.	.	.	.	.
.	.	.	.	2c\	-ci-	2e/	.
=113	=113	=113	=113	=113	=113	=113	=113
0FF	-sa,	[0Fl	-sa.	1A	-o-	1.f	.
.	.	.	.	2A/	-sa,	.	.
.	.	.	.	2B-\	.	4e/	.
.	.	.	.	.	.	4d/	.
=114	=114	=114	=114	=114	=114	=114	=114
1AA	spe-	0F_	.	1c	.	1c	-sa,
[1BB-	.	.	.	1d	spe-	2r	.
.	.	.	.	.	.	[2B-/	spe-
=115	=115	=115	=115	=115	=115	=115	=115
2BB-/]	.	0F_	.	2d\	-ci-	2B-/]	.
2AA/	-ci-	.	.	2c\	.	2c/	-ci-
1BB-	-o-	.	.	1B-	-o-	1d	-o-
=116	=116	=116	=116	=116	=116	=116	=116
0FFl	-sa.	0F]	.	0Al	-sa.	0cl	-sa.
!!LO:LB:i:g=z
=117||	=117||	=117||	=117||	=117||	=117||	=117||	=117||
*>C	*>C	*>C	*>C	*>C	*>C	*>C	*>C
*clefF4	*	*clefGv2	*	*clefGv2	*	*clefG2	*
*k[b-]	*	*k[b-]	*	*k[b-]	*	*k[b-]	*
*M2/2	*	*M2/2	*	*M2/2	*	*M2/2	*
*met(C|)	*	*met(C|)	*	*met(C|)	*	*met(C|)	*
!!section: Vale, valde decora
!!!OMD: Vale, valde decora
0FF	Va-	0r	.	0r	.	0r	.
=118	=118	=118	=118	=118	=118	=118	=118
0GG	.	0r	.	0r	.	0r	.
=119	=119	=119	=119	=119	=119	=119	=119
1AA	-le,	1r	.	0F	Va-	0r	.
[1BB-	Va-	1r	.	.	.	.	.
=120	=120	=120	=120	=120	=120	=120	=120
1BB-]	.	0r	.	0G	.	0r	.
[1C	.	.	.	.	.	.	.
=121	=121	=121	=121	=121	=121	=121	=121
2C/]	.	0r	.	0A	-le,	0c	Va-
2BB-/	.	.	.	.	.	.	.
[1AA	.	.	.	.	.	.	.
=122	=122	=122	=122	=122	=122	=122	=122
1AA]	.	0r	.	0B-	.	0d	.
1GG	.	.	.	.	.	.	.
=123	=123	=123	=123	=123	=123	=123	=123
1AA	-le,	0r	.	1A	.	1c	-le,
1r	.	.	.	2A/	Va-	2c/	Va-
.	.	.	.	[2B-\	.	[2d/	.
=124	=124	=124	=124	=124	=124	=124	=124
0r	.	0r	.	4B-\]	.	4d/]	.
.	.	.	.	4A/	.	4c/	.
.	.	.	.	4G/	.	4B-/	.
.	.	.	.	4F/	.	4A/	.
.	.	.	.	1G	.	1B-	.
=125	=125	=125	=125	=125	=125	=125	=125
2.FF/	Va-	[0F	Va-	1A	-le,	1A	-le,
4GG/	.	.	.	.	.	.	.
2AA/	.	.	.	1r	.	1r	.
2BB-/	.	.	.	.	.	.	.
=126	=126	=126	=126	=126	=126	=126	=126
2FF/	.	0F]	.	0r	.	0r	.
2.BB-/	.	.	.	.	.	.	.
4C/	.	.	.	.	.	.	.
2D\	.	.	.	.	.	.	.
=127	=127	=127	=127	=127	=127	=127	=127
2C/	.	[0G	.	0r	.	0r	.
2BB-/	.	.	.	.	.	.	.
2GG/	.	.	.	.	.	.	.
[2C/	.	.	.	.	.	.	.
=128	=128	=128	=128	=128	=128	=128	=128
2C/]	.	0G]	.	0r	.	0r	.
4BB-/	.	.	.	.	.	.	.
4AA/	.	.	.	.	.	.	.
1GG	.	.	.	.	.	.	.
=129	=129	=129	=129	=129	=129	=129	=129
1FF	-le,	[0A	-le,	0r	.	2.c/	Va-
.	.	.	.	.	.	4d/	.
1r	.	.	.	.	.	2e/	.
.	.	.	.	.	.	2f/	.
=130	=130	=130	=130	=130	=130	=130	=130
1r	.	0A]	.	0r	.	2c/	.
.	.	.	.	.	.	2.f/	.
1r	.	.	.	.	.	.	.
.	.	.	.	.	.	4g/	.
.	.	.	.	.	.	2a/	.
=131	=131	=131	=131	=131	=131	=131	=131
0r	.	[0B-	.	0r	.	2.g/	.
.	.	.	.	.	.	4f/	.
.	.	.	.	.	.	2d/	.
.	.	.	.	.	.	[2g/	.
=132	=132	=132	=132	=132	=132	=132	=132
1r	.	0B-]	.	1r	.	2g/]	.
.	.	.	.	.	.	4f/	.
.	.	.	.	.	.	4e/	.
1GG	val-	.	.	1G	Va-	1d	.
=133	=133	=133	=133	=133	=133	=133	=133
2.AA/	.	1A	.	2.E/	.	1c	-le,
4BB-/	.	.	.	4D/	.	.	.
2C/	.	2A/	Va-	2E/	.	1r	.
[2D\	.	[2B-\	.	[2F/	.	.	.
=134	=134	=134	=134	=134	=134	=134	=134
4D\]	.	4B-\]	.	4F/]	.	1r	.
4C/	.	4A/	.	4E/	.	.	.
4BB-/	.	4G/	.	4D/	.	.	.
4AA/	.	4F/	.	4C/	.	.	.
1BB-	.	1G	.	1D	.	1d	val-
=135	=135	=135	=135	=135	=135	=135	=135
1.AA	.	0A	.	1E	-le,	1.c	.
.	.	.	.	1C	.	.	.
2BB-/	.	.	.	.	.	2d/	.
=136	=136	=136	=136	=136	=136	=136	=136
2C/	.	1A	-le,	1r	.	2e/	.
2D\	.	.	.	.	.	2f/	.
2C/	.	[1A	Va-	1r	.	2e/	.
[2D\	.	.	.	.	.	[2f/	.
=137	=137	=137	=137	=137	=137	=137	=137
2D\]	.	1A]	.	1r	.	2f/]	.
2F\	.	.	.	.	.	1d	.
1E	.	1G	.	1C	val-	.	.
.	.	.	.	.	.	2c#i/	.
=138	=138	=138	=138	=138	=138	=138	=138
1D	-de,	[0A	-le,	1F	-de,	1d	-de,
2.C/	val-	.	.	2.A/	val-	2.e/	val-
4D\	.	.	.	4B-\	.	4f/	.
=139	=139	=139	=139	=139	=139	=139	=139
2C/	.	0A]	.	4c\	.	2e/	.
.	.	.	.	4B-\	.	.	.
1D	.	.	.	4A/	.	1f	.
.	.	.	.	4G/	.	.	.
.	.	.	.	2.F/	.	.	.
4C/	.	.	.	.	.	4e/	.
4BB-/	.	.	.	4G/	.	4d/	.
=140	=140	=140	=140	=140	=140	=140	=140
2AA/	.	0c	val-	2.A/	.	2.c/	.
2F\	.	.	.	.	.	.	.
.	.	.	.	4F/	.	4d/	.
2E\	.	.	.	2G/	.	2e/	.
2F\	.	.	.	[2A/	.	2c/	.
=141	=141	=141	=141	=141	=141	=141	=141
2E\	.	1c	-de,	4A/]	.	2g/	.
.	.	.	.	4G/	.	.	.
1F	.	.	.	2F/	.	1a	.
.	.	[1c	val-	2.A/	.	.	.
4E\	.	.	.	.	.	4g/	.
4D\	.	.	.	4B-\	.	4f/	.
=142	=142	=142	=142	=142	=142	=142	=142
2C/	.	1c]	.	2c\	.	2.e/	.
2E\	.	.	.	1G	.	.	.
.	.	.	.	.	.	4c/	.
1D	.	1B-	.	.	.	1f	.
.	.	.	.	2F/	.	.	.
=143	=143	=143	=143	=143	=143	=143	=143
0C	-de,	1c	-de,	1G	-de,	0e	-de,
.	.	[1c	val-	1E	.	.	.
=144	=144	=144	=144	=144	=144	=144	=144
1AA	de-	1c]	.	1F	de-	1r	.
[1GG	-co-	[1B-	.	[1G	-co-	[1d	de-
=145	=145	=145	=145	=145	=145	=145	=145
1GG]	.	1B-]	.	1G]	.	2d/]	.
.	.	.	.	.	.	2e/	.
1FF	.	1A	.	[1C	.	1f	.
=146	=146	=146	=146	=146	=146	=146	=146
0C	.	0G	-de,	2C/]	.	1.g	-co-
.	.	.	.	2D/	.	.	.
.	.	.	.	1E	.	.	.
.	.	.	.	.	.	2e/	.
=147	=147	=147	=147	=147	=147	=147	=147
1D	.	1F	de-	1F	.	1d	.
1AA	.	[1A	-co-	[1E	.	1c	.
=148	=148	=148	=148	=148	=148	=148	=148
0BB-	.	1A]	.	1E]	.	1.d	.
.	.	1G	.	1D	.	.	.
.	.	.	.	.	.	2B-/	.
=149	=149	=149	=149	=149	=149	=149	=149
0AA;	-ra,	0A;	-ra,	0E;	-ra,	0c;	-ra,
=150	=150	=150	=150	=150	=150	=150	=150
*M3/1	*	*M3/1	*	*M3/1	*	*M3/1	*
*met(3)	*	*met(3)	*	*met(3)	*	*met(3)	*
0.r	.	0.r	.	0E	et	0c	et
.	.	.	.	1D	pro	1B-	pro
=151	=151	=151	=151	=151	=151	=151	=151
0.r	.	0.r	.	1E	no-	1c	no-
.	.	.	.	0F	.	1.d	.
.	.	.	.	.	.	2c/	.
=152	=152	=152	=152	=152	=152	=152	=152
0.r	.	0.r	.	1E	.	0c	.
.	.	.	.	0D	.	.	.
.	.	.	.	.	.	1Bni	.
=153	=153	=153	=153	=153	=153	=153	=153
0FF	et	0A	et	0C	-bis,	0c	-bis,
1C	pro	1G	.	1r	.	1e	et
=154	=154	=154	=154	=154	=154	=154	=154
1AA	no-	1A	pro	1c	pro	1f	pro
0GG	.	0B-	no-	0d	no-	1.g	no-
.	.	.	.	.	.	2f/	.
=155	=155	=155	=155	=155	=155	=155	=155
1AA	.	1A	.	1c	.	0f	.
1BB-	.	0G	.	1d	.	.	.
1C	.	.	.	1c	.	1e	.
=156	=156	=156	=156	=156	=156	=156	=156
0D	.	0.F	-bis,	0A	-bis,	0.f	-bis,
1BB-	-bis	.	.	1r	.	.	.
=157	=157	=157	=157	=157	=157	=157	=157
0E-	sem-	0G	sem-	0.r	.	0.r	.
1D	.	1F	.	.	.	.	.
=158	=158	=158	=158	=158	=158	=158	=158
0C	.	1E	-per	0.r	.	0g	sem-
.	.	0D	.	.	.	.	.
1BB-	.	.	.	.	.	1f	-per
=159	=159	=159	=159	=159	=159	=159	=159
1C	-per	0.r	.	0c	sem-	1e	Chri-
0GG	.	.	.	.	.	0d	.
.	.	.	.	1B-	.	.	.
=160	=160	=160	=160	=160	=160	=160	=160
0.r	.	1.C	Chri-	0c	-per	0c	-stum,
.	.	2D/	.	.	.	.	.
.	.	1E	.	1G	.	1r	.
=161	=161	=161	=161	=161	=161	=161	=161
0FF	Chri-	0F	.	1.A	Chri-	1.c	ex-
.	.	.	.	2G/	.	2d/	.
1C	.	1G	.	1E	.	1e	.
=162	=162	=162	=162	=162	=162	=162	=162
1AA	.	0A	-stum,	1.C	.	0f	-o-
1FF	.	.	.	.	.	.	.
.	.	.	.	2D/	.	.	.
1C	.	1G	ex-	1E	.	1g	.
=163	=163	=163	=163	=163	=163	=163	=163
0FF	-stum,	1F	-o-	0F	-stum,	0a	.
.	.	0c	.	.	.	.	.
1r	.	.	.	1C	ex-	1g	.
=164	=164	=164	=164	=164	=164	=164	=164
1FF	ex-	1A	-ra,	1D	-o-	1f	-ra,
0EE-	-o-	1.B-	ex-	1.E-	.	1.g	ex-
.	.	2c\	.	2C/	.	2f/	.
=165	=165	=165	=165	=165	=165	=165	=165
1FF	.	1A	.	0C	-ra,	0f	-o-
0C	.	0G	-o-	.	.	.	.
.	.	.	.	1c	ex-	1e	.
=166	=166	=166	=166	=166	=166	=166	=166
[0.FFl	-ra.	[0.Fl	-ra.	1.A	-o-	[0.fl	-ra.
.	.	.	.	2B-\	.	.	.
.	.	.	.	1d	.	.	.
=167	=167	=167	=167	=167	=167	=167	=167
0.FF]	.	0.F]	.	0.cl	-ra.	0.f]	ra.
==	==	==	==	==	==	==	==
*-	*-	*-	*-	*-	*-	*-	*-
!!!RDF**kern: l=long note in original notation
!!!RDF**kern: i=editorial accidental
!!!ENC:	Jesse Rodin; Chris Gage 06-04-2015
!!!END:	2015/06/16/
!!!EED:	Jesse Rodin
!!!EEV:	2015/06/17/
!!!ONB:	Translated from MusicXML and edited on 2015/06/17/ by Craig Sapp
!!muse2ps: C^@{COM}^i2I150v90,90,90,130c140z18
